X:1     %Music
T:Didn't My Lord Deliver Daniel
B:Alan Lomax, The Penguin Book of American Folk Songs, Penguin, 1964
F:http://www.folkinfo.org/songs
M:3/4     %Meter
L:1/8     %
K:F
C F A |C2 C2 BA |GC GC EG |c2 B2 AG | FC F
w:In Spring-field moun-tain there did dwe-i-ell A love-ly youth I knew full we-i-ell. 
C FA |C2 C2 CF |E3 C EG |C2 C2 DE | (FC F) z3 |]
w:Ri-tu-ri-nu, ri-tu-di-nay, Ri-tu-di-nu, ri-tu-di-nay, **
